X:4992
T:Pant Corlan yr Wyr
O:england
M:4/4
L:1/8
Q:120
C:Trad - G
S:Welsh
K:G
D2 | G2 GA B2 G2 | c2 AB c2 A2 | B2 G2 G2 B2 | d2 A2 F2 D2 | G2 GA B2 G2
| c2 AB c2 A2 | B2 G2 FG A2 |  G4-G2 :|
|: dc | B2 d2 d2 cB | A2c2 c2 BA | G2 B2 B2 AG | F2A2F2 D2 | G2 GA B2 G
2 | c2 AB c2 A2 | B2 G2 G2 B2 | d2 A2 F2 D2 | G2 GA B2 G2 | c2 AB c2 A2
| B2 G2 FG A2 | G4-G2 :|


